picto/ticket-machine-fr.svg

<svg class="color-immutable" width="24" height="24" viewBox="0 0 24 24" fill="none" xmlns="http://www.w3.org/2000/svg"><path d="M0 22.5V1.5C0 0.675 0.675 0 1.5 0H22.5C23.325 0 24 0.675 24 1.5V22.5C24 23.325 23.325 24 22.5 24H1.5C0.675 24 0 23.325 0 22.5Z" fill="#2D327D"/><path fill-rule="evenodd" clip-rule="evenodd" d="M12 6.75V8.25H17.25V12H19.5V12.75H17.25V13.5H19.5V14.25H17.25V18.75H21V6.75H12ZM19.5 9.75H19.051V8.277H18.891H18.731H18.576H18.522V7.951C18.632 7.948 18.721 7.937 18.79 7.917C18.859 7.897 18.923 7.866 18.98 7.822C19.063 7.758 19.119 7.651 19.148 7.5H19.5V9.75Z" fill="white"/><path fill-rule="evenodd" clip-rule="evenodd" d="M7.5 9V21H16.5V9H7.5ZM15 16.5H9V15.75H15V16.5ZM15 15H9V14.25H15V15ZM15 12.75H13.38C13.38 12.628 13.4 12.512 13.439 12.401C13.478 12.29 13.534 12.195 13.606 12.115C13.661 12.053 13.726 11.993 13.801 11.935C13.875 11.877 14.023 11.769 14.245 11.614C14.353 11.539 14.428 11.469 14.471 11.405C14.514 11.34 14.536 11.266 14.536 11.18C14.536 11.082 14.507 11.002 14.449 10.941C14.391 10.88 14.315 10.849 14.221 10.849C13.989 10.849 13.87 11.016 13.863 11.349H13.43C13.43 11.327 13.43 11.311 13.43 11.3C13.43 11.027 13.506 10.816 13.659 10.666C13.808 10.52 14 10.448 14.236 10.448C14.445 10.448 14.62 10.507 14.76 10.626C14.913 10.755 14.989 10.929 14.989 11.147C14.989 11.338 14.928 11.502 14.806 11.639C14.766 11.684 14.729 11.72 14.694 11.747C14.659 11.774 14.567 11.84 14.419 11.943C14.277 12.041 14.176 12.117 14.115 12.169C14.054 12.221 13.997 12.281 13.945 12.349H15V12.75Z" fill="white"/><path d="M4.33399 2.995L5.18799 5.248H4.67199L4.49299 4.744H3.65799L3.47499 5.249H2.96899L3.82599 2.996H4.33399V2.995ZM4.37399 4.384L4.07499 3.537L3.77499 4.384H4.37399Z" fill="white"/><path d="M6.85802 3.569V5.249H6.43302V5.004C6.30502 5.198 6.12502 5.295 5.89502 5.295C5.69402 5.295 5.54202 5.228 5.44002 5.094C5.40002 5.041 5.37202 4.98 5.35602 4.909C5.34002 4.838 5.33002 4.746 5.33002 4.632V3.569H5.77602V4.493C5.77602 4.589 5.77902 4.658 5.78402 4.698C5.79002 4.738 5.80202 4.772 5.81902 4.8C5.86602 4.875 5.94702 4.912 6.06002 4.912C6.20002 4.912 6.30302 4.85 6.36602 4.726C6.39702 4.665 6.41202 4.556 6.41202 4.398V3.569H6.85802Z" fill="white"/><path d="M8.09401 3.566V3.881H7.76001V4.67C7.76001 4.764 7.76901 4.824 7.78601 4.85C7.81201 4.887 7.87001 4.906 7.95901 4.906C7.99401 4.906 8.03901 4.903 8.09401 4.898V5.255C7.99401 5.266 7.90101 5.272 7.81701 5.272C7.69001 5.272 7.59301 5.258 7.52601 5.229C7.42201 5.183 7.35801 5.099 7.33201 4.977C7.32101 4.925 7.31501 4.817 7.31501 4.652V3.881H7.04401V3.566H7.31601V3.172H7.76001V3.566H8.09401Z" fill="white"/><path d="M9.09999 3.52301C9.34399 3.52301 9.54299 3.60401 9.69799 3.76601C9.85099 3.92601 9.92699 4.13901 9.92699 4.40601C9.92699 4.68201 9.84499 4.90201 9.68199 5.06601C9.52999 5.21801 9.33099 5.29501 9.08599 5.29501C8.82499 5.29501 8.61599 5.21001 8.46199 5.04001C8.31399 4.87701 8.23999 4.66701 8.23999 4.40901C8.23999 4.15501 8.31199 3.94801 8.45499 3.78901C8.61499 3.61201 8.82899 3.52301 9.09999 3.52301ZM9.07699 3.87101C8.95899 3.87101 8.86499 3.91901 8.79599 4.01401C8.72499 4.11001 8.68899 4.24201 8.68899 4.40901C8.68899 4.58201 8.72399 4.71501 8.79399 4.80701C8.86599 4.90001 8.96399 4.94701 9.08799 4.94701C9.20399 4.94701 9.29599 4.90401 9.36299 4.81901C9.43999 4.72501 9.47799 4.58801 9.47799 4.40901C9.47799 4.24101 9.44399 4.11001 9.37599 4.01701C9.30599 3.91901 9.20599 3.87101 9.07699 3.87101Z" fill="white"/><path d="M10.655 3.57401V3.79701C10.711 3.72001 10.767 3.66301 10.823 3.62601C10.922 3.55701 11.039 3.52301 11.174 3.52301C11.391 3.52301 11.544 3.61501 11.631 3.80001C11.762 3.61501 11.941 3.52301 12.166 3.52301C12.34 3.52301 12.476 3.57501 12.572 3.67901C12.668 3.78301 12.717 3.93001 12.717 4.12001V5.24901H12.27V4.25001C12.27 4.14201 12.258 4.06701 12.235 4.02401C12.193 3.94501 12.117 3.90601 12.007 3.90601C11.874 3.90601 11.781 3.96201 11.729 4.07501C11.705 4.12501 11.694 4.21501 11.694 4.34401V5.24801H11.249V4.23201C11.249 4.13301 11.237 4.06101 11.214 4.01701C11.176 3.94301 11.105 3.90601 11.002 3.90601C10.938 3.90601 10.881 3.92201 10.831 3.95401C10.78 3.98601 10.742 4.02901 10.716 4.08501C10.69 4.14001 10.678 4.22701 10.678 4.34501V5.24901H10.232V3.57401H10.655Z" fill="white"/><path d="M14.591 5.24901H14.136C14.117 5.18301 14.107 5.12701 14.107 5.08101C13.968 5.22401 13.788 5.29501 13.567 5.29501C13.395 5.29501 13.26 5.25501 13.164 5.17501C13.053 5.08301 12.998 4.95401 12.998 4.78901C12.998 4.57901 13.093 4.43301 13.283 4.35201C13.36 4.31901 13.501 4.28901 13.708 4.26101C13.885 4.23701 13.996 4.21501 14.039 4.19301C14.083 4.17101 14.104 4.12701 14.104 4.06001C14.104 3.91301 14.007 3.84001 13.812 3.84001C13.708 3.84001 13.633 3.85801 13.585 3.89501C13.537 3.93201 13.506 3.99601 13.49 4.08701H13.069C13.082 3.90001 13.153 3.76001 13.28 3.66501C13.407 3.57001 13.588 3.52301 13.823 3.52301C14.082 3.52301 14.274 3.57601 14.398 3.68101C14.455 3.73001 14.494 3.78301 14.513 3.83901C14.532 3.89501 14.541 3.98501 14.541 4.10701C14.541 4.13301 14.539 4.24501 14.536 4.44501C14.534 4.64701 14.533 4.76301 14.533 4.79301C14.533 4.91501 14.537 5.00401 14.544 5.06101C14.551 5.11901 14.566 5.18101 14.591 5.24901ZM14.1 4.43801C14.043 4.47401 13.938 4.50201 13.786 4.52301C13.679 4.53901 13.602 4.56001 13.555 4.58601C13.488 4.62201 13.455 4.68301 13.455 4.76901C13.455 4.83901 13.477 4.89301 13.521 4.93201C13.565 4.97101 13.627 4.99001 13.706 4.99001C13.837 4.99001 13.943 4.94401 14.024 4.85201C14.053 4.82001 14.072 4.78701 14.083 4.75301C14.094 4.71901 14.099 4.67301 14.099 4.61701V4.43801H14.1Z" fill="white"/><path d="M15.789 3.566V3.881H15.455V4.67C15.455 4.764 15.464 4.824 15.481 4.85C15.507 4.887 15.564 4.905 15.653 4.905C15.688 4.905 15.733 4.902 15.788 4.897V5.254C15.688 5.265 15.595 5.271 15.511 5.271C15.384 5.271 15.287 5.257 15.22 5.228C15.116 5.182 15.052 5.098 15.026 4.976C15.015 4.924 15.009 4.816 15.009 4.651V3.881H14.737V3.566H15.009V3.172H15.454V3.566H15.789Z" fill="white"/><path d="M17.521 4.72599C17.497 4.81999 17.455 4.90899 17.393 4.99199C17.245 5.19399 17.033 5.29499 16.756 5.29499C16.506 5.29499 16.305 5.21599 16.155 5.05799C16.081 4.98099 16.025 4.88799 15.986 4.77999C15.944 4.66399 15.923 4.54299 15.923 4.41699C15.923 4.17299 15.993 3.96799 16.134 3.80199C16.291 3.61599 16.494 3.52399 16.743 3.52399C16.944 3.52399 17.115 3.58599 17.257 3.70999C17.359 3.79899 17.432 3.90899 17.478 4.03999C17.524 4.17099 17.547 4.33499 17.547 4.53299H16.377C16.381 4.61499 16.394 4.68299 16.415 4.73799C16.476 4.88499 16.59 4.95799 16.76 4.95799C16.843 4.95799 16.911 4.93999 16.963 4.90299C17.015 4.86699 17.058 4.80799 17.092 4.72699H17.521V4.72599ZM17.092 4.23199C17.084 4.15099 17.065 4.08399 17.037 4.03099C17.008 3.97899 16.968 3.93699 16.915 3.90599C16.862 3.87499 16.805 3.85999 16.742 3.85999C16.643 3.85999 16.561 3.89299 16.496 3.95999C16.431 4.02699 16.393 4.11699 16.381 4.23199H17.092Z" fill="white"/></svg>

<svg class="color-immutable" width="24" height="24" viewBox="0 0 24 24" fill="none" xmlns="http://www.w3.org/2000/svg"><g clip-path="url(#a)"><path d="M0 22.5v-21C0 .675.675 0 1.5 0h21c.825 0 1.5.675 1.5 1.5v21c0 .825-.675 1.5-1.5 1.5h-21C.675 24 0 23.325 0 22.5Z" fill="#2D327D"/><path fill-rule="evenodd" clip-rule="evenodd" d="M12 6.75v1.5h5.25V12h2.25v.75h-2.25v.75h2.25v.75h-2.25v4.5H21v-12h-9Zm7.5 3h-.449V8.277h-.529v-.326c.11-.003.199-.014.268-.034a.566.566 0 0 0 .19-.095c.083-.064.139-.171.168-.322h.352v2.25Z" fill="#fff"/><path fill-rule="evenodd" clip-rule="evenodd" d="M7.5 9v12h9V9h-9Zm7.5 7.5H9v-.75h6v.75Zm0-1.5H9v-.75h6V15Zm0-2.25h-1.62c0-.122.02-.238.059-.349a.836.836 0 0 1 .167-.286c.055-.062.12-.122.195-.18.074-.058.222-.166.444-.321a.867.867 0 0 0 .226-.209.396.396 0 0 0 .065-.225.333.333 0 0 0-.087-.239.3.3 0 0 0-.228-.092c-.232 0-.351.167-.358.5h-.433V11.3c0-.273.076-.484.229-.634a.788.788 0 0 1 .577-.218c.209 0 .384.059.524.178a.646.646 0 0 1 .229.521.715.715 0 0 1-.183.492.847.847 0 0 1-.112.108 9.347 9.347 0 0 1-.275.196 4.054 4.054 0 0 0-.304.226 1.169 1.169 0 0 0-.17.18H15v.401Z" fill="#fff"/><path d="m4.334 2.995.854 2.253h-.516l-.179-.504h-.835l-.183.505h-.506l.857-2.253h.508v-.001Zm.04 1.389-.299-.847-.3.847h.599ZM6.858 3.569v1.68h-.425v-.245a.61.61 0 0 1-.538.291c-.201 0-.353-.067-.455-.201a.475.475 0 0 1-.084-.185 1.281 1.281 0 0 1-.026-.277V3.569h.446v.924c0 .096.003.165.008.205.006.04.018.074.035.102.047.075.128.112.241.112a.32.32 0 0 0 .306-.186c.031-.061.046-.17.046-.328v-.829h.446ZM8.094 3.566v.315H7.76v.789c0 .094.009.154.026.18.026.037.084.056.173.056.035 0 .08-.003.135-.008v.357c-.1.011-.193.017-.277.017a.762.762 0 0 1-.291-.043.332.332 0 0 1-.194-.252 1.954 1.954 0 0 1-.017-.325v-.771h-.271v-.315h.272v-.394h.444v.394h.334ZM9.1 3.523a.79.79 0 0 1 .598.243c.153.16.229.373.229.64 0 .276-.082.496-.245.66a.807.807 0 0 1-.596.229c-.261 0-.47-.085-.624-.255-.148-.163-.222-.373-.222-.631 0-.254.072-.461.215-.62.16-.177.374-.266.645-.266Zm-.023.348a.33.33 0 0 0-.281.143.652.652 0 0 0-.107.395c0 .173.035.306.105.398.072.093.17.14.294.14a.332.332 0 0 0 .275-.128c.077-.094.115-.231.115-.41 0-.168-.034-.299-.102-.392a.345.345 0 0 0-.299-.146ZM10.655 3.574v.223a.598.598 0 0 1 .519-.274c.217 0 .37.092.457.277a.622.622 0 0 1 .535-.277c.174 0 .31.052.406.156.096.104.145.251.145.441v1.129h-.447V4.25a.519.519 0 0 0-.035-.226c-.042-.079-.118-.118-.228-.118-.133 0-.226.056-.278.169a.697.697 0 0 0-.035.269v.904h-.445V4.232a.493.493 0 0 0-.035-.215c-.038-.074-.109-.111-.212-.111a.31.31 0 0 0-.286.179.65.65 0 0 0-.038.26v.904h-.446V3.574h.423ZM14.591 5.249h-.455a.629.629 0 0 1-.029-.168.72.72 0 0 1-.54.214c-.172 0-.307-.04-.403-.12a.474.474 0 0 1-.166-.386c0-.21.095-.356.285-.437.077-.033.218-.063.425-.091.177-.024.288-.046.331-.068.044-.022.065-.066.065-.133 0-.147-.097-.22-.292-.22-.104 0-.179.018-.227.055-.048.037-.079.101-.095.192h-.421a.544.544 0 0 1 .211-.422c.127-.095.308-.142.543-.142.259 0 .451.053.575.158a.37.37 0 0 1 .115.158.915.915 0 0 1 .028.268l-.005.338-.003.348c0 .122.004.211.011.268.007.058.022.12.047.188Zm-.491-.811c-.057.036-.162.064-.314.085a.734.734 0 0 0-.231.063c-.067.036-.1.097-.1.183 0 .07.022.124.066.163a.27.27 0 0 0 .185.058.403.403 0 0 0 .318-.138.271.271 0 0 0 .059-.099.46.46 0 0 0 .016-.136v-.179h.001ZM15.789 3.566v.315h-.334v.789c0 .094.009.154.026.18.026.037.083.055.172.055.035 0 .08-.003.135-.008v.357c-.1.011-.193.017-.277.017a.762.762 0 0 1-.291-.043.332.332 0 0 1-.194-.252 1.954 1.954 0 0 1-.017-.325v-.77h-.272v-.315h.272v-.394h.445v.394h.335ZM17.521 4.726a.752.752 0 0 1-.128.266c-.148.202-.36.303-.637.303-.25 0-.451-.079-.601-.237a.775.775 0 0 1-.169-.278 1.058 1.058 0 0 1-.063-.363c0-.244.07-.449.211-.615a.76.76 0 0 1 .609-.278.754.754 0 0 1 .735.516c.046.131.069.295.069.493h-1.17c.004.082.017.15.038.205.061.147.175.22.345.22a.343.343 0 0 0 .203-.055.39.39 0 0 0 .129-.176h.429v-.001Zm-.429-.494a.544.544 0 0 0-.055-.201.334.334 0 0 0-.295-.171.328.328 0 0 0-.246.1.442.442 0 0 0-.115.272h.711Z" fill="#fff"/></g><defs><clipPath id="a"><path fill="#fff" d="M0 0h24v24H0z"/></clipPath></defs></svg>
